!!!OTL: Schlecht gefreit (200), S. 436
!!!id: T0383
**kern
*clefG2
*k[b-]
*F:
{8f
=1
8cc
8cc
8cc
8cc
=2
8cc
8cc
4a}
=3
{8cc
16cc
16cc
8cc
16b-
16b-
=4
8a
8g
8f}
=5
{8f
=6
8cc
8cc
8cc
8cc
=7
8cc
8cc
4a}
=8
{8cc
16cc
16cc
8cc
16b-
16b-
=9
8a
8g
8f}
=10
{8dd
=11
8dd
8cc
8cc
8cc
=12
8b-
8dd
8dd
8dd}
=13
{8cc
8a
8a
8a
=14
8a
8a
8cc
8cc}
=15
{8b-
8a
4g
=16
8g
8g
4g}
=17
{8cc
8cc
8cc
8cc
=18
16cc
16cc
4f}
==
*-
!!!minrhy: 16
!!!meters: 2/4 ]  ZZ[8
!!!cut: Schlecht gefreit (200), S. 436
!!!reg: Luxemburg
!!!trd: Singendes Volk, Esch-Alzette, 1937 posth.
!!!rhy1: X_  X_X_X_X_  X_X_X__
!!!rhy2: X_XXX_XX  X_X_X_
!!!key: T0383  16  F 2/4 ]  ZZ[8
!!!mod: SECHSTONSKALA DUR ?]  AMBITUS[6
!!!kad: 31316521
!!!akz: 55_53_55_53_64_53_42_55_
!!!fot: 'a__b__a__b__c__d__ds"aw_
!!!for: 'a__b__a__b__aw_aw_c__d__
!!!fok: '^a_\__^a_\__V__V__\__\__
!! PHRAS[GEMISCHTTAKTIG]
!!!fkt: Hochzeits-, Ehestandslied
!!!bem: StraPen, fff Witry, 10.1.1933
!! THILL; Mathias
!! PR[28] 2K[5] 2G[5] 3K[5] 3G[9] 4A[7] 4Ü[0] 5A[5] 6K[0] 6G[0]
!! 7K[0] 7G[0] 8A[0] MEHR[0] SI[35] ABS[43] SR[9] SP[26]
!! ST[11] 2k[2] 2g[16] 3k[5] 3g[5] 4d[7] 4ü[0] 5d[0] 6k[2] 6g[0]
!! 7k[0] 7g[0] 8d[0] mehr[0] si[37] dm[-2] sr[19] sp[19]
!! 1F[17] 2F[52] 3F[13] 4F[0] LF[0] 2P[0] 3P[0] 4P[0] TRI[0] DF[4] AB[46]
!! TF[0] U3K[0] U3[0] U4[0] U4Ü[0] U5[9] U6K[0] U6[5] U7K[0] U7[5]
!! N1[18] N2K[0] N2[23] N3K[0] N3[20] N4[7] N4Ü[0] N5[11] N6K[0] N6[2]
!!!n7k: 0] N7[0] O1[0] O2K[0] O2[0] O3K[0] O3[0] HÖ[0
